packages/web-icons/svgs/arrow_9_right.svg

<svg viewBox="0 0 22 24" xmlns="http://www.w3.org/2000/svg" class="ridi_icon"><path d="M.2 22l3.1 2 8-12-8-12L.2 2l6.6 10L.2 22zm10.5 0l3.1 2 8-12-8-12-3.1 2 6.6 10-6.6 10z"/></svg>

<?xml version="1.0" encoding="UTF-8"?>
<svg width="22px" height="24px" viewBox="0 0 22 24" version="1.1" xmlns="http://www.w3.org/2000/svg">
  <!-- Generator: Sketch 41.2 (35397) - http://www.bohemiancoding.com/sketch -->
  <title>arrow_9_right</title>
  <desc>Created with Sketch.</desc>
  <defs></defs>
  <g id="Page-1" stroke="none" stroke-width="1" fill="none" fill-rule="evenodd">
    <g id="arrow_9_right" fill="#000000">
      <g id="레이어_1">
        <path d="M0.2,22 L3.3,24 L11.3,12 L3.3,0 L0.2,2 L6.8,12 L0.2,22 L0.2,22 Z M10.7,22 L13.8,24 L21.8,12 L13.8,0 L10.7,2 L17.3,12 L10.7,22 L10.7,22 Z" id="Shape"></path>
      </g>
    </g>
  </g>
</svg>
